wp-content/themes/KOOEN/assets/img/common/statement.svg

<svg fill="none" height="20" viewBox="0 0 103 20" width="103" xmlns="http://www.w3.org/2000/svg"><path d="m9.95 14.3c0 .8-.125 1.525-.375 2.175-.25.6333-.59167 1.1667-1.025 1.6-.41667.4333-.91667.7667-1.5 1s-1.20833.35-1.875.35c-.9 0-1.75833-.1833-2.575-.55-.8-.3833-1.44167-.8833-1.925-1.5l1.325-1.625c.38333.5.85833.8917 1.425 1.175.58333.2833 1.16667.425 1.75.425.75 0 1.36667-.25 1.85-.75s.725-1.225.725-2.175c0-.45-.075-.8417-.225-1.175-.15-.35-.35833-.6583-.625-.925-.26667-.2833-.575-.5333-.925-.75-.33333-.2333-.7-.45-1.1-.65-.48333-.2333-.94167-.4917-1.375-.775-.41667-.3-.79167-.64167-1.125-1.025s-.6-.83333-.8-1.35c-.18333-.53333-.275-1.15833-.275-1.875 0-.85.13333-1.59167.4-2.225s.61667-1.15833 1.05-1.575c.45-.41667.95833-.725 1.525-.925.56667-.200001 1.14167-.300001 1.725-.300001.85 0 1.60833.141671 2.275.425001.68333.28333 1.25.70833 1.7 1.275l-1.35 1.6c-.63333-.83333-1.48333-1.25-2.55-1.25-.31667 0-.63333.05833-.95.175-.3.1-.575.275-.825.525-.25.23333-.45.53333-.6.9s-.225.80833-.225 1.325c0 .45.06667.84167.2 1.175.15.31667.34167.60833.575.875.25.25.53333.48333.85.7.31667.2.65833.39167 1.025.575.46667.23333.925.5 1.375.8.45.2833.85833.625 1.225 1.025s.65833.875.875 1.425c.23333.5333.35 1.1583.35 1.875zm6.5143-11.075v15.775h-2.225v-15.775h-3.375v-1.925h8.975v1.925zm12.5699 15.775-1-4.15h-5.125l-1.025 4.15h-2.275l4.45-17.7h2.975l4.35 17.7zm-3.475-15.6h-.1l-2.25 9.675h4.525zm11.1931-.175v15.775h-2.225v-15.775h-3.375v-1.925h8.975v1.925zm5.3344 15.775v-17.7h7.45v2h-5.275v5.575h4.925v1.875h-4.925v6.225h5.525v2.025zm22.7446 0v-14.65h-.075l-3.95 14.65h-2.025l-3.9-14.65h-.075v14.65h-2.075v-17.7h3.3l3.775 14.05h.1l3.7-14.05h3.45v17.7zm6.1128 0v-17.7h7.45v2h-5.275v5.575h4.925v1.875h-4.925v6.225h5.525v2.025zm18.4446 0-5.65-13.725h-.075v13.725h-2.075v-17.7h2.7l5.575 13.75h.075v-13.75h2.075v17.7zm10.181-15.775v15.775h-2.225v-15.775h-3.375v-1.925h8.9753v1.925z" fill="#fff"/></svg>

<svg width="103" height="20" viewBox="0 0 103 20" fill="none" xmlns="http://www.w3.org/2000/svg">
<path d="M9.95 14.3C9.95 15.1 9.825 15.825 9.575 16.475C9.325 17.1083 8.98333 17.6417 8.55 18.075C8.13333 18.5083 7.63333 18.8417 7.05 19.075C6.46667 19.3083 5.84167 19.425 5.175 19.425C4.275 19.425 3.41667 19.2417 2.6 18.875C1.8 18.4917 1.15833 17.9917 0.675 17.375L2 15.75C2.38333 16.25 2.85833 16.6417 3.425 16.925C4.00833 17.2083 4.59167 17.35 5.175 17.35C5.925 17.35 6.54167 17.1 7.025 16.6C7.50833 16.1 7.75 15.375 7.75 14.425C7.75 13.975 7.675 13.5833 7.525 13.25C7.375 12.9 7.16667 12.5917 6.9 12.325C6.63333 12.0417 6.325 11.7917 5.975 11.575C5.64167 11.3417 5.275 11.125 4.875 10.925C4.39167 10.6917 3.93333 10.4333 3.5 10.15C3.08333 9.85 2.70833 9.50833 2.375 9.125C2.04167 8.74167 1.775 8.29167 1.575 7.775C1.39167 7.24167 1.3 6.61667 1.3 5.9C1.3 5.05 1.43333 4.30833 1.7 3.675C1.96667 3.04167 2.31667 2.51667 2.75 2.1C3.2 1.68333 3.70833 1.375 4.275 1.175C4.84167 0.974999 5.41667 0.874999 6 0.874999C6.85 0.874999 7.60833 1.01667 8.275 1.3C8.95833 1.58333 9.525 2.00833 9.975 2.575L8.625 4.175C7.99167 3.34167 7.14167 2.925 6.075 2.925C5.75833 2.925 5.44167 2.98333 5.125 3.1C4.825 3.2 4.55 3.375 4.3 3.625C4.05 3.85833 3.85 4.15833 3.7 4.525C3.55 4.89167 3.475 5.33333 3.475 5.85C3.475 6.3 3.54167 6.69167 3.675 7.025C3.825 7.34167 4.01667 7.63333 4.25 7.9C4.5 8.15 4.78333 8.38333 5.1 8.6C5.41667 8.8 5.75833 8.99167 6.125 9.175C6.59167 9.40833 7.05 9.675 7.5 9.975C7.95 10.2583 8.35833 10.6 8.725 11C9.09167 11.4 9.38333 11.875 9.6 12.425C9.83333 12.9583 9.95 13.5833 9.95 14.3ZM16.4643 3.225V19H14.2393V3.225H10.8643V1.3H19.8393V3.225H16.4643ZM29.0342 19L28.0342 14.85H22.9092L21.8842 19H19.6092L24.0592 1.3H27.0342L31.3842 19H29.0342ZM25.5592 3.4H25.4592L23.2092 13.075H27.7342L25.5592 3.4ZM36.7523 3.225V19H34.5273V3.225H31.1523V1.3H40.1273V3.225H36.7523ZM42.0867 19V1.3H49.5367V3.3H44.2617V8.875H49.1867V10.75H44.2617V16.975H49.7867V19H42.0867ZM64.8313 19V4.35H64.7563L60.8063 19H58.7813L54.8813 4.35H54.8063V19H52.7313V1.3H56.0313L59.8063 15.35H59.9063L63.6063 1.3H67.0563V19H64.8313ZM70.9441 19V1.3H78.3941V3.3H73.1191V8.875H78.0441V10.75H73.1191V16.975H78.6441V19H70.9441ZM89.3887 19L83.7387 5.275H83.6637V19H81.5887V1.3H84.2887L89.8637 15.05H89.9387V1.3H92.0137V19H89.3887ZM99.5697 3.225V19H97.3447V3.225H93.9697V1.3H102.945V3.225H99.5697Z" fill="white"/>
</svg>
